!!!COM: Copland, Aaron
!!!OTL: Music for a Great City for Orchestra
!!!OMV: Movement 3: Subway Jam
!!!example: 724
!!!work: Cop-42
!!!OMD-full: none
!!!OMD: none
**kern	**dynam	**kern	**dynam	**kern	**dynam	**kern	**dynam	**kern	**dynam	**blank	**kern	**dynam	**blank	**blank	**blank
*grp:A	*grp:A	*grp:A	*grp:A	*grp:A	*grp:A	*grp:A	*grp:A	*grp:B	*grp:B	*grp:B	*grp:B	*grp:B	*grp:B	*grp:B	*grp:B
*part6	*	*part5	*	*part4	*	*part3	*	*part2	*part2	*	*part1	*part1	*	*	*
*staff6	*	*staff5	*	*staff4	*	*staff3	*	*staff2	*	*	*staff1	*	*	*	*
*ICidio	*	*ICidio	*	*ICidio	*	*ICidio	*	*ICbras	*	*	*ICbras	*	*	*	*
*Ibdrum	*	*Itimpa	*	*	*	*	*	*Itromt	*	*	*Itromt	*	*	*	*
*I"Bass Drum	*	*I"Timbales	*	*I"Congas	*	*I"Tenor Drum	*	*I"Trombone 3.	*	*	*I"Trombone 1. 2.	*	*	*	*
*I'B. D.	*	*I'Timb.	*	*I'Congas	*	*I'T. D.	*	*I'Tbn.	*	*	*I'Tbn.	*	*	*	*
*stria1	*	*stria1	*	*stria1	*	*stria1	*	*	*	*	*	*	*	*	*
*clefX	*	*clefX	*	*clefX	*	*clefX	*	*clefF4	*	*	*clefF4	*	*	*	*
*k[]	*	*k[]	*	*k[]	*	*k[]	*	*k[]	*	*	*k[]	*	*	*	*
*C:	*	*C:	*	*C:	*	*C:	*	*C:	*	*	*C:	*	*	*	*
*M4/4	*	*M4/4	*	*M4/4	*	*M4/4	*	*M4/4	*	*	*M4/4	*	*	*	*
!!LO:REH:t=66
=30	=30	=30	=30	=30	=30	=30	=30	=30	=30	=30	=30	=30	=30	=30	=30
!	!	!	!	!	!	!	!	!	!	!	!LO:TX:t=[[quarter]=132]	!	!	!	!
!	!LO:DY:ed=brack	!	!LO:DY:ed=brack	!	!LO:DY:ed=brack	!	!LO:DY:ed=brack	!	!LO:DY:ed=brack	!	!	!LO:DY:ed=brack	!	!	!
4ryy	4ryy	16ryy	4ryy	8.ryy	4ryy	16ryy	4ryy	4r	mf	.	4r	mf	.	.	.
.	.	16ryy	.	.	.	16ryy	.	.	.	.	.	.	.	.	.
.	.	16ryy	.	.	.	16ryy	.	.	.	.	.	.	.	.	.
.	.	16ryy	.	16ryy	.	16ryy	.	.	.	.	.	.	.	.	.
8ryy	.	4ryy	.	16ryy	.	16ryy	.	8r	.	.	8r	.	.	.	.
.	.	.	.	16ryy	.	16ryy	.	.	.	.	.	.	.	.	.
!	!	!	!	!	!	!	!	!LO:TX:a:t=[con sord]	!	!	!LO:TX:a:t=[con sord]	!	!	!	!
8ryy	.	.	.	16ryy	.	16ryy	.	([8AA~	.<	.	([8D-~ [8E-~	.<	.	.	.
.	.	.	.	16ryy	.	16ryy	.	.	.	.	.	.	.	.	.
4ryy	.	16ryy	.	16ryy	.	4ryy	.	4AA]	.	.	4D-] 4E-]	.	.	.	.
.	.	16ryy	.	16ryy	.	.	.	.	.	.	.	.	.	.	.
.	.	16ryy	.	16ryy	.	.	.	.	.	.	.	.	.	.	.
.	.	16ryy	.	16ryy	.	.	.	.	.	.	.	.	.	.	.
!	!	!	!	!	!	!	!	!	!	!	!	!	!	!	!
8ryy	.	16ryy	.	16ryy	.	16ryy	.	8FF#'^)	[f	.	8C'^ 8D'^)	[f	.	.	.
.	.	16ryy	.	16ryy	.	16ryy	.	.	.	.	.	.	.	.	.
8ryy	.	16ryy	.	16ryy	.	16ryy	.	8r	.	.	8r	.	.	.	.
.	.	16ryy	.	16ryy	.	16ryy	.	.	.	.	.	.	.	.	.
=31	=31	=31	=31	=31	=31	=31	=31	=31	=31	=31	=31	=31	=31	=31	=31
4ryy	.	16ryy	.	8.ryy	.	16ryy	.	4r	.	.	4r	.	.	.	.
.	.	16ryy	.	.	.	16ryy	.	.	.	.	.	.	.	.	.
.	.	16ryy	.	.	.	16ryy	.	.	.	.	.	.	.	.	.
.	.	16ryy	.	16ryy	.	16ryy	.	.	.	.	.	.	.	.	.
8ryy	.	4ryy	.	16ryy	.	16ryy	.	4D'~	.	.	4E-X'~ 4B-X	.	.	.	.
.	.	.	.	16ryy	.	16ryy	.	.	.	.	.	.	.	.	.
8ryy	.	.	.	16ryy	.	16ryy	.	.	.	.	.	.	.	.	.
.	.	.	.	16ryy	.	16ryy	.	.	.	.	.	.	.	.	.
4ryy	.	16ryy	.	16ryy	.	4ryy	.	8r	.	.	8r	.	.	.	.
.	.	16ryy	.	16ryy	.	.	.	.	.	.	.	.	.	.	.
.	.	16ryy	.	16ryy	.	.	.	(4.AA~	<	.	(4.D-X~ 4.E-	<	.	.	.
.	.	16ryy	.	16ryy	.	.	.	.	.	.	.	.	.	.	.
8ryy	.	16ryy	.	16ryy	.	16ryy	.	.	.	.	.	.	.	.	.
.	.	16ryy	.	16ryy	.	16ryy	.	.	.	.	.	.	.	.	.
8ryy	.	16ryy	.	16ryy	.	16ryy	.	.	.	.	.	.	.	.	.
.	.	16ryy	.	16ryy	.	16ryy	.	.	.	.	.	.	.	.	.
=32	=32	=32	=32	=32	=32	=32	=32	=32	=32	=32	=32	=32	=32	=32	=32
!	!	!	!	!	!	!	!	!	!	!	!	!	!	!	!
4ryy	.	16ryy	.	8.ryy	.	16ryy	.	8FF#'^)	[	.	8C'^ 8Dn)	[	.	.	.
.	.	16ryy	.	.	.	16ryy	.	.	.	.	.	.	.	.	.
.	.	16ryy	.	.	.	16ryy	.	8r	.	.	8r	.	.	.	.
.	.	16ryy	.	16ryy	.	16ryy	.	.	.	.	.	.	.	.	.
8ryy	.	4ryy	.	16ryy	.	16ryy	.	4D'~	.	.	4E-X'~ 4B-X	.	.	.	.
.	.	.	.	16ryy	.	16ryy	.	.	.	.	.	.	.	.	.
8ryy	.	.	.	16ryy	.	16ryy	.	.	.	.	.	.	.	.	.
.	.	.	.	16ryy	.	16ryy	.	.	.	.	.	.	.	.	.
4ryy	.	16ryy	.	16ryy	.	4ryy	.	8r	.	.	8r	.	.	.	.
.	.	16ryy	.	16ryy	.	.	.	.	.	.	.	.	.	.	.
.	.	16ryy	.	16ryy	.	.	.	(4.D~	<	.	(4.E-~ 4.B-	.<	.	.	.
.	.	16ryy	.	16ryy	.	.	.	.	.	.	.	.	.	.	.
8ryy	.	16ryy	.	16ryy	.	16ryy	.	.	.	.	.	.	.	.	.
.	.	16ryy	.	16ryy	.	16ryy	.	.	.	.	.	.	.	.	.
8ryy	.	16ryy	.	16ryy	.	16ryy	.	.	.	.	.	.	.	.	.
.	.	16ryy	.	16ryy	.	16ryy	.	.	.	.	.	.	.	.	.
=33	=33	=33	=33	=33	=33	=33	=33	=33	=33	=33	=33	=33	=33	=33	=33
4ryy	.	16ryy	.	8.ryy	.	16ryy	.	8F'^)	[	.	8G-'^ 8e-X)	[	.	.	.
.	.	16ryy	.	.	.	16ryy	.	.	.	.	.	.	.	.	.
.	.	16ryy	.	.	.	16ryy	.	8r	.	.	8r	.	.	.	.
.	.	16ryy	.	16ryy	.	16ryy	.	.	.	.	.	.	.	.	.
8ryy	.	4ryy	.	16ryy	.	16ryy	.	4D'~	.	.	4E-X'~ 4B-X	.	.	.	.
.	.	.	.	16ryy	.	16ryy	.	.	.	.	.	.	.	.	.
8ryy	.	.	.	16ryy	.	16ryy	.	.	.	.	.	.	.	.	.
.	.	.	.	16ryy	.	16ryy	.	.	.	.	.	.	.	.	.
4ryy	.	16ryy	.	16ryy	.	4ryy	.	4r	.	.	4r	.	.	.	.
.	.	16ryy	.	16ryy	.	.	.	.	.	.	.	.	.	.	.
.	.	16ryy	.	16ryy	.	.	.	.	.	.	.	.	.	.	.
.	.	16ryy	.	16ryy	.	.	.	.	.	.	.	.	.	.	.
8ryy	.	16ryy	.	16ryy	.	16ryy	.	(4AA~	<	.	(4D-X~ 4E-X	<	.	.	.
.	.	16ryy	.	16ryy	.	16ryy	.	.	.	.	.	.	.	.	.
8ryy	.	16ryy	.	16ryy	.	16ryy	.	.	.	.	.	.	.	.	.
.	.	16ryy	.	16ryy	.	16ryy	.	.	.	.	.	.	.	.	.
=34	=34	=34	=34	=34	=34	=34	=34	=34	=34	=34	=34	=34	=34	=34	=34
!	!	!	!	!	!	!	!	!	!	!	!	!	!	!	!
4ryy	.	16ryy	.	8.ryy	.	16ryy	.	8FFn'^)	[	.	8C-'^ 8D-X)	[	.	.	.
.	.	16ryy	.	.	.	16ryy	.	.	.	.	.	.	.	.	.
.	.	16ryy	.	.	.	16ryy	.	8r	.	.	8r	.	.	.	.
.	.	16ryy	.	16ryy	.	16ryy	.	.	.	.	.	.	.	.	.
8ryy	.	4ryy	.	16ryy	.	16ryy	.	4r	.	.	4r	.	.	.	.
.	.	.	.	16ryy	.	16ryy	.	.	.	.	.	.	.	.	.
8ryy	.	.	.	16ryy	.	16ryy	.	.	.	.	.	.	.	.	.
.	.	.	.	16ryy	.	16ryy	.	.	.	.	.	.	.	.	.
4ryy	.	16ryy	.	16ryy	.	4ryy	.	8r	.	.	8r	.	.	.	.
.	.	16ryy	.	16ryy	.	.	.	.	.	.	.	.	.	.	.
.	.	16ryy	.	16ryy	.	.	.	8FF'~	.	.	8C-'~ 8D-	.	.	.	.
.	.	16ryy	.	16ryy	.	.	.	.	.	.	.	.	.	.	.
8ryy	.	16ryy	.	16ryy	.	16ryy	.	4r	.	.	4r	.	.	.	.
.	.	16ryy	.	16ryy	.	16ryy	.	.	.	.	.	.	.	.	.
8ryy	.	16ryy	.	16ryy	.	16ryy	.	.	.	.	.	.	.	.	.
.	.	16ryy	.	16ryy	.	16ryy	.	.	.	.	.	.	.	.	.
=35	=35	=35	=35	=35	=35	=35	=35	=35	=35	=35	=35	=35	=35	=35	=35
4ryy	.	16ryy	.	8.ryy	.	16ryy	.	8r	.	.	8r	.	.	.	.
.	.	16ryy	.	.	.	16ryy	.	.	.	.	.	.	.	.	.
.	.	16ryy	.	.	.	16ryy	.	4.D~	.	.	4.E-X~ 4.B-X	.	.	.	.
.	.	16ryy	.	16ryy	.	16ryy	.	.	.	.	.	.	.	.	.
8ryy	.	4ryy	.	16ryy	.	16ryy	.	.	.	.	.	.	.	.	.
.	.	.	.	16ryy	.	16ryy	.	.	.	.	.	.	.	.	.
8ryy	.	.	.	16ryy	.	16ryy	.	.	.	.	.	.	.	.	.
.	.	.	.	16ryy	.	16ryy	.	.	.	.	.	.	.	.	.
4ryy	.	16ryy	.	16ryy	.	4ryy	.	8r'^	.	.	8r'^	.	.	.	.
.	.	16ryy	.	16ryy	.	.	.	.	.	.	.	.	.	.	.
.	.	16ryy	.	16ryy	.	.	.	(4.F~	<	.	(4.G-X~ 4.e-X	<	.	.	.
.	.	16ryy	.	16ryy	.	.	.	.	.	.	.	.	.	.	.
8ryy	.	16ryy	.	16ryy	.	16ryy	.	.	.	.	.	.	.	.	.
.	.	16ryy	.	16ryy	.	16ryy	.	.	.	.	.	.	.	.	.
8ryy	.	16ryy	.	16ryy	.	16ryy	.	.	.	.	.	.	.	.	.
.	.	16ryy	.	16ryy	.	16ryy	.	.	.	.	.	.	.	.	.
=36	=36	=36	=36	=36	=36	=36	=36	=36	=36	=36	=36	=36	=36	=36	=36
4ryy	.	16ryy	.	8.ryy	.	16ryy	.	8D'^)	[	.	8E-X'^ 8B-X)	[	.	.	.
.	.	16ryy	.	.	.	16ryy	.	.	.	.	.	.	.	.	.
.	.	16ryy	.	.	.	16ryy	.	8r	.	.	8r	.	.	.	.
.	.	16ryy	.	16ryy	.	16ryy	.	.	.	.	.	.	.	.	.
8ryy	.	4ryy	.	16ryy	.	16ryy	.	8r	.	.	8r	.	.	.	.
.	.	.	.	16ryy	.	16ryy	.	.	.	.	.	.	.	.	.
8ryy	.	.	.	16ryy	.	16ryy	.	[8C~	.	.	[8D-X~ [8A	.	.	.	.
.	.	.	.	16ryy	.	16ryy	.	.	.	.	.	.	.	.	.
4ryy	.	16ryy	.	16ryy	.	4ryy	.	8C]	.	.	8D-] 8A]	.	.	.	.
.	.	16ryy	.	16ryy	.	.	.	.	.	.	.	.	.	.	.
.	.	16ryy	.	16ryy	.	.	.	8r	.	.	8r	.	.	.	.
.	.	16ryy	.	16ryy	.	.	.	.	.	.	.	.	.	.	.
!	!	!	!	!	!	!	!	!	!	!	!	!	!	!	!
8ryy	.	16ryy	.	16ryy	.	16ryy	.	(4AA~ii	<	.	(4D-~ 4E-Xii	<	.	.	.
.	.	16ryy	.	16ryy	.	16ryy	.	.	.	.	.	.	.	.	.
8ryy	.	16ryy	.	16ryy	.	16ryy	.	.	.	.	.	.	.	.	.
.	.	16ryy	.	16ryy	.	16ryy	.	.	[[	.	.	[[	.	.	.
=	=	=	=	=	=	=	=	=	=	=	=	=	=	=	=
*-	*-	*-	*-	*-	*-	*-	*-	*-	*-	*-	*-	*-	*-	*-	*-
!!!system-decoration: [([(s1,s2)])][(s3,s4,s5,s6)]
!!!Xfilter:slurcheck
!!!CDT: 1900/11/14-1990/12/02
!!!CBL: Brooklyn, United States
!!!CDL: North Tarrytown, United States
!!!CNT: American
!!!AGN: Orchestral; Programmatic
!!!MCN: Copland, Aaron
!!!MDT: 1964/05/26
!!!MGN: London Symphony Orchestra
!!!MLC: London, United Kingdom
!!!MPD: 1964
!!!MPN:
!!!ODT: 1964
!!!PDT: 1965
!!!excerpt-start-measure: 30
!!!excerpt-end-measure: 36
!!!excerpt-start-time: 0:51
!!!excerpt-end-time: 1:03
!!!excerpt-duration-sec: 12
!!!excerpt-time-signature: 4/4
!!!excerpt-tempo-beat: [quarter]
!!!excerpt-tempo-rate: [132]
!!!excerpt-meter-type: quadruple
!!!excerpt-beat-group: G4
!!!excerpt-beat-subgroup: G2
!!!experiment: 1
!!!EEV: 2020/07/28
!!!ONB: Converted from MusicXML on 2020/07/28
!!!RDF**kern: i = marked note, color="hotpink", text="extra("
